X:1
P: Judique Jig
C: (a.k.a. traditional Cape Breton Jig, 1st 2 parts only, Dunlay Colln.)
C: as played by Buddy MacMaster
N: CD notes say:  from a handwritten setting based on performances Dan J. Campbell and Angus Allan Gillis and supplied by Westmount, Cape Breton music enthusiast Danny Fraser.
C: arr. T. Traub 4-8-2005
R: Jig
M: 6/8
K: A
L: 1/8
|: cd |"A"efe c2 d|eae c2 e|"Bm"dcd B2 c|"E7"d3 dcd|"A"efe cde|"D"fg=f dfa|"E"g2 b gfg| "A"a2 a :|
|: e|"A"agf edc|"Bm"Bcd "E"f2 e|"A"cde a2 e|cde "E"f2 g|"A"agf edc|"Bm"Bcd "D"f2 a|"E"efe dcB|"A"A3 A2 :|
efg|"A"a2 b c'2 e|c2 A b2 a|"E"agf ecA|fed cBA|"A"a2 b c'2 e|c2 e b2 a|"E"agf efg |"A"a3 agf||
"A"e2 E EEE|F2 E A2 B|c2 B c2 d|"E"efe dcB|"A"e2 E EFE|F2 E A2 c|"D"efe "E"dcB |"A"A3 A2 |]
